**kern	**text	**text
*clefG2	*	*
*k[f#c#]	*	*
*D:	*D:	*D:
*M4/4	*	*
*met(c)	*	*
*MM88	*	*
=1-	=1-	=1-
2a	Kde	Where
8b/	do-	is
8a	-mov	my
=2	=2	=2
4e	můj,	home,
2g	kde	where
8f#	do-	is
8e	-mov	my
=3	=3	=3
2d	můj?	home?
4r	.	.
8d	Vo-	Wa-
8d	-da	-ters
=4	=4	=4
(8.dL	hu-	mur-
16gJk)	.	.
2g	-či	-mur
8a	po	a-
8b/	lu-	-cross
=5	=5	=5
(8aL	-či-	the
8f#J)	.	mea-
4d	-nách,	-dows,
4r	.	.
8d	bo-	pine-
8d	-ry	-woods
=6	=6	=6
(8dL	šu-	rus-
8g)	.	-tle
(8g	-mí	up-
8bJ)	.	.
(4dd	po	-pon
8cc#L)	.	.
8bJ	ska-	the
=7	=7	=7
4b/	-li-	cliff-
4a	-nách,	-rocks,
4r	.	.
8a	v sa-	bloom
8a	-dě	of
=8	=8	=8
[2a	skví	spring
8a]	.	shines
8b/	se	in
8a	ja-	the
8g	-ra	or-
=9	=9	=9
2f#	květ,	-chard,
4r	.	.
8a	zem-	par-
8a	-ský	-a-
=10	=10	=10
[2cc#	ráj	-dise
8cc#]	.	.
8b/	to	on
8a	na	Earth
8g	po-	.
=11	=11	=11
2f#	-hled!	see!
4r	.	.
8f#	A	And
8f#	to	that
=12	=12	=12
4.f#	je	is
8f#	ta	the
(4f#	krá-	bea-
8g#X)	.	.
8a#X	-sná	-u-
=13	=13	=13
(8a#XL	ze-	-ti-
8bJ)	.	-ful
4b/	-mě,	land,
4r	.	.
8b/	ze-	The
8b/	-mě	.
=14	=14	=14
(8bL	če-	Czech
8aJ)	.	.
2a	-ská,	.
8gL	do-	land,
8aJ	-mov	my
=15	=15	=15
(4f#	můj	home,
2dd)	.	.
8cc#	ze-	The
8b	-mě	.
=16	=16	=16
4b/	če-	Czech
2a	-ská,	.
8e	do-	land,
8f#	-mov	my
=17	=17	=17
2d	můj.	home.
==	==	==
*-	*-	*-
